X:30
T:30 Jenny Lind's Polka
C:Michael Turner's MS
N:* indicates acciacatura from next note in scale above
N:that Noteworthy cannot handle yet
N:3rd part per STB but seems odd
I:abc2nwc
M:2/4
L:1/16
K:D
F2A2 G2B2|A2f2{g}f^ef2|A2e2{f}e^de2|F2d2{e}dcd2|
F2A2 G2B2|A2f2{g}f^ef2|A2e2{f}e^de2|d2d2 d2 z2:|
d2B2{c}B^AB2|A2F2{G}F^EF2|g2e2{f}e^de2|f2d2{e}dcd2|
d2B2{c}B^AB2|A2F2{G}F^EF2|g2e2{f}e^de2|d2d2 d2 z2:|
 (3efe ^de a2e2|e2d2 dcd2| (3efe ^de d'2a2|b2a2 aga2|
 (3efe ^de a2e2|e2d2 dcd2| (3efe ^de d'2a2|{b}a2a2 a2 z2|]

